img/Precasts.svg

<svg width="48" height="48" viewBox="0 0 48 48" fill="none" xmlns="http://www.w3.org/2000/svg">
<g clip-path="url(#clip0)">
<path d="M46.967 25.747C50.602 12.625 44.314 0 33.295 0C27.198 0 24.595 3.504 17.898 11.663C11.2 19.822 1.65 8.478 0 25.747C1.386 41.66 18.652 56.064 26.668 42.774C33.966 30.674 43.333 38.868 46.968 25.747H46.967Z" fill="#E6F1F9"/>
<path fill-rule="evenodd" clip-rule="evenodd" d="M12 14H14V21H21V14H23V22C23 22.2652 22.8946 22.5196 22.7071 22.7071C22.5196 22.8946 22.2652 23 22 23H13C12.7348 23 12.4804 22.8946 12.2929 22.7071C12.1054 22.5196 12 22.2652 12 22V14ZM25 14H27V21H34V14H36V22C36 22.2652 35.8946 22.5196 35.7071 22.7071C35.5196 22.8946 35.2652 23 35 23H26C25.7348 23 25.4804 22.8946 25.2929 22.7071C25.1054 22.5196 25 22.2652 25 22V14ZM12 25H14V32H21V25H23V33C23 33.2652 22.8946 33.5196 22.7071 33.7071C22.5196 33.8946 22.2652 34 22 34H13C12.7348 34 12.4804 33.8946 12.2929 33.7071C12.1054 33.5196 12 33.2652 12 33V25ZM25 25H27V32H34V25H36V33C36 33.2652 35.8946 33.5196 35.7071 33.7071C35.5196 33.8946 35.2652 34 35 34H26C25.7348 34 25.4804 33.8946 25.2929 33.7071C25.1054 33.5196 25 33.2652 25 33V25Z" fill="#036FC7"/>
</g>
<defs>
<clipPath id="clip0">
<rect width="48" height="48" fill="white"/>
</clipPath>
</defs>
</svg>

<svg width="48" height="48" fill="none" xmlns="http://www.w3.org/2000/svg"><g clip-path="url(#clip0)"><path d="M46.967 25.747C50.602 12.625 44.314 0 33.295 0c-6.097 0-8.7 3.504-15.397 11.663C11.2 19.822 1.65 8.478 0 25.747 1.386 41.66 18.652 56.064 26.668 42.774c7.298-12.1 16.665-3.906 20.3-17.027h-.001z" fill="#E6F1F9"/><path fill-rule="evenodd" clip-rule="evenodd" d="M12 14h2v7h7v-7h2v8a1 1 0 0 1-1 1h-9a1 1 0 0 1-1-1v-8zm13 0h2v7h7v-7h2v8a1 1 0 0 1-1 1h-9a1 1 0 0 1-1-1v-8zM12 25h2v7h7v-7h2v8a1 1 0 0 1-1 1h-9a1 1 0 0 1-1-1v-8zm13 0h2v7h7v-7h2v8a1 1 0 0 1-1 1h-9a1 1 0 0 1-1-1v-8z" fill="#036FC7"/></g><defs><clipPath id="clip0"><path fill="#fff" d="M0 0h48v48H0z"/></clipPath></defs></svg>
